X: 22
T: the Woods of Kilmurry   #2
R: air, jig
%S: s:2 b:14(7+7)
B: "O'Neill's 1850 *22"
Q: "Slow"
O: F.O'Neill
Z: Norbert Paap, norbertp@bdu.uva.nl
M: 6/8
L: 1/8
K: Gm
(d/c/) \
| (BAG) (FDC) | (DG2- G) z(G/A/) |[1 (BAG) (dcA) | (F3 F2) :|[2 (B<d)c (A<B)A | (G3 G2) |]| (G/A/) | (B>cd/=e/) (fdc) |
| (dg2- g) z(g/a/) | (bag) (dcA) | (G3 G2) z(a/g/) || (fed) (cAG) | (FD2- D) z(G/A/) | (B<d)c (A<B)A | (G3 G2) |]
